third_party/noto/noto_2/emoji_u1f4e1.svg

<svg enable-background="new 0 0 128 128" version="1.1" viewBox="0 0 128 128" xmlns="http://www.w3.org/2000/svg"><path d="m19.93 116.6c0-6.16 16.62-14.9 37.13-14.9s37.13 8.74 37.13 14.9c0 0-6.71 7.4-37.13 7.4s-37.13-7.4-37.13-7.4z" fill="#94D1E0"/><path d="m87.08 108.65c-2.77-1.39-5.62-2.61-8.55-3.6l-2.28-15.91h-15.15l-1.04 13.44c-4.1 1.84-8.81 7.23-8.23 11.08 0.84 5.6 10.48 6.6 25.73 4.96 3.86-0.42 12.14-2.85 15.35-5.2 0 0.01-2.47-3.09-5.83-4.77z" fill="#82AEC0"/><polygon points="73.22 93.34 63.7 91.1 62.91 99.49 50.64 100.6 51.83 113.66 74.98 108.22" fill="#2F7889"/><path d="M117.23,91.34c-6.52,7.93-54.61,6.04-77.05-10.76S3.61,18.58,10.71,9.1L117.23,91.34z" fill="#82AEC0"/><path d="m117.43 91.18c0.82-1.1 1.06-2.02 0.81-3.35l-25.32-3s-18.58 4.79-43.97-2.99l0.41 4.28c24.24 11.93 61.83 13.4 68.07 5.06z" fill="#2F7889"/><ellipse transform="matrix(.5993 -.8006 .8006 .5993 -13.07 71.735)" cx="65.12" cy="48.92" rx="24.3" ry="67.55" fill="#FAFAFA"/><path d="m92.91 82.97c9.26-9.26-6.47-38.45-33.55-66.71-22.4-12.39-42.12-16.11-48.32-7.82-8.04 10.75 9.65 37.58 39.51 59.94 9.54 7.14 20.56 13.62 29.51 17.88 5.66 1.07 10.13-0.57 12.85-3.29z" fill="#E0E0E0"/><path d="m57.06 108.35-16.26 0.55v-37.14c4.33-1.8 9.84-0.37 11.03 7.55 0.65 4.32 5.23 29.04 5.23 29.04z" fill="#2F7889"/><path d="m79.68 29.47c-29.87-22.36-60.6-31.77-68.64-21.03s9.65 37.58 39.52 59.93c29.87 22.36 60.6 31.77 68.64 21.03s-9.65-37.57-39.52-59.93zm37.32 57.26c-6.92 9.25-35.54-0.48-63.92-21.73s-45.78-45.96-38.86-55.21 35.54 0.48 63.92 21.73 45.78 45.96 38.86 55.21z" fill="#82AEC0"/><path d="m51.83 113.66-16.93-4.58 2.73-31.29c0.31-4.2 2.08-6.21 4.51-6.23 3.03-0.02 5.94 1.78 6.42 6.63 0.43 4.35 3.27 35.47 3.27 35.47z" fill="#94D1E0"/><ellipse cx="42.14" cy="78.24" rx="2.45" ry="3.27" fill="#2F7889" opacity=".7"/><line x1="91.44" x2="72.17" y1="19.92" y2="45.84" fill="none" stroke="#2F7889" stroke-linecap="round" stroke-miterlimit="10" stroke-width="3"/><line x1="30.38" x2="90.31" y1="44.39" y2="18.99" fill="none" stroke="#82AEC0" stroke-linecap="round" stroke-miterlimit="10" stroke-width="3"/><line x1="93.26" x2="86.93" y1="20.88" y2="85.22" fill="none" stroke="#82AEC0" stroke-linecap="round" stroke-miterlimit="10" stroke-width="3"/><path d="m91.57 20.05c-2.92-2.04-2.52-3.73-1.88-4.55l5.85-7.46c0.64-0.82 2.26-1.44 4.74 0.58 2.07 1.68 2.13 3.49 1.49 4.31l-5.85 7.46c-0.64 0.82-2.38 1.04-4.35-0.34z" fill="#82AEC0"/><path d="m91.64 17.34c-0.8-0.6 0.21-3.08 2.1-5.29s3.34-3.57 4.13-2.98c0.8 0.6 0.12 2.65-1.92 5.14-2.03 2.5-3.98 3.38-4.31 3.13z" fill="#94D1E0"/><path d="m14.22 9.79c0.23-0.3 2.2-2.35 1-3.21-1.3-0.92-3.17 0.17-4.8 2.81-3.29 5.3 0.37 13.76 1.15 15.56 5.47 12.64 19.69 28.96 39 43.42 8.1 6.06 16.25 11.16 24.01 15.18 3.42 1.77 6.15 3.51 9.75 3.11 2.08-0.23 2.58-1.6 0.82-2.48-9.44-4.74-21.73-11.44-32.07-19.18-28.38-21.24-45.78-45.96-38.86-55.21z" fill="#94D1E0"/></svg>

<?xml version="1.0" encoding="utf-8"?>
<!-- Generator: Adobe Illustrator 25.2.3, SVG Export Plug-In . SVG Version: 6.00 Build 0)  -->
<svg version="1.1" id="Layer_4" xmlns="http://www.w3.org/2000/svg" xmlns:xlink="http://www.w3.org/1999/xlink" x="0px" y="0px"
	 viewBox="0 0 128 128" style="enable-background:new 0 0 128 128;" xml:space="preserve">
<g>
	<path style="fill:#94D1E0;" d="M19.93,116.6c0-6.16,16.62-14.9,37.13-14.9s37.13,8.74,37.13,14.9c0,0-6.71,7.4-37.13,7.4
		S19.93,116.6,19.93,116.6z"/>
	<path style="fill:#82AEC0;" d="M87.08,108.65c-2.77-1.39-5.62-2.61-8.55-3.6l-2.28-15.91H61.1l-1.04,13.44
		c-4.1,1.84-8.81,7.23-8.23,11.08c0.84,5.6,10.48,6.6,25.73,4.96c3.86-0.42,12.14-2.85,15.35-5.2
		C92.91,113.43,90.44,110.33,87.08,108.65z"/>
	<polygon style="fill:#2F7889;" points="73.22,93.34 63.7,91.1 62.91,99.49 50.64,100.6 51.83,113.66 74.98,108.22 	"/>
	<path style="fill:#82AEC0;" d="M117.23,91.34c-6.52,7.93-54.61,6.04-77.05-10.76S3.61,18.58,10.71,9.1L117.23,91.34z"/>
	<path style="fill:#2F7889;" d="M117.43,91.18c0.82-1.1,1.06-2.02,0.81-3.35l-25.32-3c0,0-18.58,4.79-43.97-2.99l0.41,4.28
		C73.6,98.05,111.19,99.52,117.43,91.18z"/>
	
		<ellipse transform="matrix(0.5993 -0.8006 0.8006 0.5993 -13.0699 71.7353)" style="fill:#FAFAFA;" cx="65.12" cy="48.92" rx="24.3" ry="67.55"/>
	<path style="fill:#E0E0E0;" d="M92.91,82.97c9.26-9.26-6.47-38.45-33.55-66.71C36.96,3.87,17.24,0.15,11.04,8.44
		C3,19.19,20.69,46.02,50.55,68.38c9.54,7.14,20.56,13.62,29.51,17.88C85.72,87.33,90.19,85.69,92.91,82.97z"/>
	<path style="fill:#2F7889;" d="M57.06,108.35l-16.26,0.55V71.76c4.33-1.8,9.84-0.37,11.03,7.55
		C52.48,83.63,57.06,108.35,57.06,108.35z"/>
	<path style="fill:#82AEC0;" d="M79.68,29.47C49.81,7.11,19.08-2.3,11.04,8.44s9.65,37.58,39.52,59.93
		c29.87,22.36,60.6,31.77,68.64,21.03C127.24,78.66,109.55,51.83,79.68,29.47z M117,86.73c-6.92,9.25-35.54-0.48-63.92-21.73
		S7.3,19.04,14.22,9.79c6.92-9.25,35.54,0.48,63.92,21.73C106.52,52.77,123.92,77.48,117,86.73z"/>
	<path style="fill:#94D1E0;" d="M51.83,113.66l-16.93-4.58l2.73-31.29c0.31-4.2,2.08-6.21,4.51-6.23c3.03-0.02,5.94,1.78,6.42,6.63
		C48.99,82.54,51.83,113.66,51.83,113.66z"/>
	<ellipse style="opacity:0.7;fill:#2F7889;" cx="42.14" cy="78.24" rx="2.45" ry="3.27"/>
	
		<line style="fill:none;stroke:#2F7889;stroke-width:3;stroke-linecap:round;stroke-miterlimit:10;" x1="91.44" y1="19.92" x2="72.17" y2="45.84"/>
	
		<line style="fill:none;stroke:#82AEC0;stroke-width:3;stroke-linecap:round;stroke-miterlimit:10;" x1="30.38" y1="44.39" x2="90.31" y2="18.99"/>
	
		<line style="fill:none;stroke:#82AEC0;stroke-width:3;stroke-linecap:round;stroke-miterlimit:10;" x1="93.26" y1="20.88" x2="86.93" y2="85.22"/>
	<path style="fill:#82AEC0;" d="M91.57,20.05c-2.92-2.04-2.52-3.73-1.88-4.55l5.85-7.46c0.64-0.82,2.26-1.44,4.74,0.58
		c2.07,1.68,2.13,3.49,1.49,4.31l-5.85,7.46C95.28,21.21,93.54,21.43,91.57,20.05z"/>
	<path style="fill:#94D1E0;" d="M91.64,17.34c-0.8-0.6,0.21-3.08,2.1-5.29s3.34-3.57,4.13-2.98c0.8,0.6,0.12,2.65-1.92,5.14
		C93.92,16.71,91.97,17.59,91.64,17.34z"/>
	<path style="fill:#94D1E0;" d="M14.22,9.79c0.23-0.3,2.2-2.35,1-3.21c-1.3-0.92-3.17,0.17-4.8,2.81
		c-3.29,5.3,0.37,13.76,1.15,15.56c5.47,12.64,19.69,28.96,39,43.42c8.1,6.06,16.25,11.16,24.01,15.18
		c3.42,1.77,6.15,3.51,9.75,3.11c2.08-0.23,2.58-1.6,0.82-2.48C75.71,79.44,63.42,72.74,53.08,65C24.7,43.76,7.3,19.04,14.22,9.79z"
		/>
</g>
</svg>
